IMB-X-Files/The-Ambassadors-Assets/660c1cab3dc8e9d963420997_clutch.svg

<svg fill="none" height="172" viewBox="0 0 191 172" width="191" xmlns="http://www.w3.org/2000/svg" xmlns:xlink="http://www.w3.org/1999/xlink"><clipPath id="a"><path d="m0 50.8896h191v63.6667h-191z"/></clipPath><path d="m1.7306 24.6992v-14.6319h5.93464c2.88546 0 4.82956 1.5552 4.82956 4.1542 0 2.1078-1.0027 3.2743-2.61942 3.6836v.0409c3.25382.6344 2.06692 6.3849 2.82412 6.6304v.1228h-1.9851c-.6344-.6139.7572-5.9142-2.94684-5.9142h-4.19518v5.9142zm1.84178-12.9948v5.4435h3.66311c1.51436 0 3.41751-.1842 3.41751-2.7218 0-2.5375-1.90315-2.7217-3.41751-2.7217zm15.40822 11.8488c2.0873 0 2.865-1.3506 3.0491-2.0669h1.6372c-.5321 1.9441-2.026 3.4994-4.625 3.4994-3.1719 0-5.0956-2.2306-5.0956-5.5049 0-3.4789 1.9646-5.5049 5.0138-5.5049 3.2743 0 4.8705 2.2306 4.8705 5.9347h-8.2471c0 1.8827 1.1255 3.6426 3.3971 3.6426zm-.0205-8.1448c-1.9646 0-3.3766 1.3916-3.3766 3.0697h6.6099c0-1.6781-1.2687-3.0697-3.2333-3.0697zm5.4115-1.146h1.7804l2.8855 8.7997h.0204l2.8855-8.7997h1.7804l-3.745 10.4368h-1.8622zm11.7452-2.0259c-.4502 0-1.0232-.3479-1.0232-.9823s.573-.9823 1.0232-.9823c.4707 0 1.0232.3479 1.0232.9823s-.5525.9823-1.0232.9823zm-.8185 2.0259h1.6371v10.4368h-1.6371zm8.7374 9.2908c2.0874 0 2.865-1.3506 3.0492-2.0669h1.6371c-.532 1.9441-2.0259 3.4994-4.6249 3.4994-3.172 0-5.0956-2.2306-5.0956-5.5049 0-3.4789 1.9646-5.5049 5.0137-5.5049 3.2743 0 4.8705 2.2306 4.8705 5.9347h-8.2471c0 1.8827 1.1256 3.6426 3.3971 3.6426zm-.0205-8.1448c-1.9645 0-3.3766 1.3916-3.3766 3.0697h6.61c0-1.6781-1.2688-3.0697-3.2334-3.0697zm5.4525-1.146h1.8009l2.3738 8.6564h.0409l2.333-8.6564h1.7394l2.3534 8.6564h.041l2.3738-8.6564h1.8009l-3.3357 10.4368h-1.7395l-2.3534-8.6154h-.0409l-2.3125 8.6154h-1.7394zm20.5177 9.2908c2.0873 0 2.865-1.3506 3.0492-2.0669h1.6371c-.5321 1.9441-2.026 3.4994-4.6249 3.4994-3.172 0-5.0956-2.2306-5.0956-5.5049 0-3.4789 1.9645-5.5049 5.0137-5.5049 3.2743 0 4.8705 2.2306 4.8705 5.9347h-8.2471c0 1.8827 1.1256 3.6426 3.3971 3.6426zm-.0205-8.1448c-1.9645 0-3.3766 1.3916-3.3766 3.0697h6.61c0-1.6781-1.2688-3.0697-3.2334-3.0697zm14.1245-5.3411h1.6372v14.6319h-1.6372v-1.2892h-.0409c-.6139.7981-1.5962 1.5757-3.2743 1.5757-2.6194 0-4.7068-2.0669-4.7068-5.5049s2.0874-5.5049 4.7068-5.5049c1.6781 0 2.6604.7367 3.2743 1.6372h.0409zm-3.1515 13.4859c1.9441 0 3.1515-1.6167 3.1515-4.0724s-1.2074-4.0724-3.1515-4.0724c-2.1487 0-3.2333 2.026-3.2333 4.0724 0 2.0465 1.0846 4.0724 3.2333 4.0724zm16.0631 1.4325c-3.1925 0-5.1161-2.2511-5.1161-5.5049s1.9236-5.5049 5.1161-5.5049c3.172 0 5.096 2.2511 5.096 5.5049s-1.924 5.5049-5.096 5.5049zm0-1.4325c2.3329 0 3.458-1.8418 3.458-4.0724s-1.1251-4.0724-3.458-4.0724c-2.3534 0-3.479 1.8418-3.479 4.0724s1.1256 4.0724 3.479 4.0724zm12.069-9.5773c1.904 0 3.5 1.0437 3.5 3.438v7.2853h-1.637v-6.876c0-1.3506-.635-2.4148-2.272-2.4148-1.842 0-3.07 1.1665-3.07 2.7832v6.5076h-1.637v-10.4368h1.637v1.2484h.041c.553-.7368 1.658-1.5349 3.438-1.5349z" fill="#d6e3ff"/><g clip-path="url(#a)"><path d="m49.6951 50.8896h8.6955v54.5714h-8.6955zm39.13 37.1632c0 8.3516-6.9934 9.0174-9.0738 9.0174-5.1978 0-6.1435-4.8853-6.1435-7.8321v-20.8856h-8.6955v20.8419c0 5.1734 1.6174 9.4431 4.4521 12.2896 2.5043 2.517 6.2565 3.892 10.3216 3.892 2.8826 0 6.9652-.902 9.1391-2.895v2.98h8.6955v-37.1085h-8.6955zm26.0869-32.7974h-8.696v13.0971h-6.5215v8.7314h6.5215v28.3771h8.696v-28.3771h6.521v-8.7314h-6.521zm33.906 39.1102c-1.894 1.7092-4.394 2.6566-7.137 2.6566-6.048 0-10.489-4.4596-10.489-10.5825 0-6.123 4.3-10.3948 10.489-10.3948 2.696 0 5.243.9015 7.185 2.6107l1.319 1.1394 5.863-5.8849-1.467-1.3294c-3.45-3.128-8.031-4.8831-12.902-4.8831-10.87 0-18.763 7.8758-18.763 18.6962 0 10.7746 8.083 18.9322 18.763 18.9322 4.963 0 9.591-1.755 12.997-4.934l1.418-1.3289-5.954-5.8806zm38.267-22.7781c-2.505-2.5147-5.439-3.8899-9.504-3.8899-2.883 0-6.148.9016-8.322 2.8923v-19.7003h-8.696v54.5714h8.696v-20.4424c0-8.3516 5.909-9.0152 7.989-9.0152 5.198 0 5.054 4.8874 5.054 7.8299v21.6277h8.696v-21.5818c0-5.1734-1.076-9.4431-3.913-12.2917z" fill="#fff"/><path d="m141.397 80.223c1.667 0 3.266.6651 4.445 1.849s1.842 2.7896 1.842 4.4638c0 1.6743-.663 3.28-1.842 4.4639s-2.778 1.849-4.445 1.849c-1.668 0-3.267-.6651-4.446-1.849s-1.841-2.7896-1.841-4.4639c0-1.6742.662-3.2799 1.841-4.4638s2.778-1.849 4.446-1.849z" fill="#ff3d2e"/><path d="m37.5235 91.7545c-3.3065 3.4162-7.7978 5.2672-12.5238 5.2672-9.6868 0-16.73023-7.64-16.73023-18.1264 0-10.5345 7.04343-18.1745 16.73023-18.1745 4.6804 0 9.1216 1.8489 12.4781 5.2192l1.3218 1.3294 5.8129-5.837-1.276-1.3293c-4.8196-4.9835-11.3412-7.6859-18.3368-7.6859-14.2716 0-24.9997 11.388-24.9997 26.5239 0 15.0901 10.776 26.4319 24.9997 26.4319 7.0434 0 13.5651-2.75 18.3846-7.7335l1.2761-1.3294-5.7652-5.9308z" fill="#fff"/></g><g fill="#ff3d2e"><path d="m15.0789 141.842 4.4316 8.979 9.9094 1.44-7.1705 6.99 1.6927 9.869-8.8632-4.66-8.86314 4.66 1.69272-9.869-7.170464-6.99 9.909384-1.44z"/><path d="m55.2894 141.842 4.4316 8.979 9.9093 1.44-7.1704 6.99 1.6927 9.869-8.8632-4.66-8.8632 4.66 1.6927-9.869-7.1704-6.99 9.9093-1.44z"/><path d="m95.5 141.842 4.4316 8.979 9.9094 1.44-7.171 6.99 1.693 9.869-8.863-4.66-8.8632 4.66 1.6927-9.869-7.1705-6.99 9.9094-1.44z"/><path d="m135.711 141.842 4.431 8.979 9.91 1.44-7.171 6.99 1.693 9.869-8.863-4.66-8.863 4.66 1.692-9.869-7.17-6.99 9.909-1.44z"/><path d="m175.921 141.842 4.432 8.979 9.909 1.44-7.171 6.99 1.693 9.869-8.863-4.66-8.863 4.66 1.693-9.869-7.171-6.99 9.909-1.44z"/></g></svg>

<svg width="191" height="172" viewBox="0 0 191 172" fill="none" xmlns="http://www.w3.org/2000/svg">
    <path
        d="M1.7306 24.6992V10.0673H7.66524C10.5507 10.0673 12.4948 11.6225 12.4948 14.2215C12.4948 16.3293 11.4921 17.4958 9.87538 17.9051V17.946C13.1292 18.5804 11.9423 24.3309 12.6995 24.5764V24.6992H10.7144C10.08 24.0853 11.4716 18.785 7.76756 18.785H3.57238V24.6992H1.7306ZM3.57238 11.7044V17.1479H7.23549C8.74985 17.1479 10.653 16.9637 10.653 14.4261C10.653 11.8886 8.74985 11.7044 7.23549 11.7044H3.57238ZM18.9806 23.5532C21.0679 23.5532 21.8456 22.2026 22.0297 21.4863H23.6669C23.1348 23.4304 21.6409 24.9857 19.0419 24.9857C15.87 24.9857 13.9463 22.7551 13.9463 19.4808C13.9463 16.0019 15.9109 13.9759 18.9601 13.9759C22.2344 13.9759 23.8306 16.2065 23.8306 19.9106H15.5835C15.5835 21.7933 16.709 23.5532 18.9806 23.5532ZM18.9601 15.4084C16.9955 15.4084 15.5835 16.8 15.5835 18.4781H22.1934C22.1934 16.8 20.9247 15.4084 18.9601 15.4084ZM24.3716 14.2624H26.152L29.0375 23.0621H29.0579L31.9434 14.2624H33.7238L29.9788 24.6992H28.1166L24.3716 14.2624ZM36.1168 12.2365C35.6666 12.2365 35.0936 11.8886 35.0936 11.2542C35.0936 10.6198 35.6666 10.2719 36.1168 10.2719C36.5875 10.2719 37.14 10.6198 37.14 11.2542C37.14 11.8886 36.5875 12.2365 36.1168 12.2365ZM35.2983 14.2624H36.9354V24.6992H35.2983V14.2624ZM44.0357 23.5532C46.1231 23.5532 46.9007 22.2026 47.0849 21.4863H48.722C48.19 23.4304 46.6961 24.9857 44.0971 24.9857C40.9251 24.9857 39.0015 22.7551 39.0015 19.4808C39.0015 16.0019 40.9661 13.9759 44.0152 13.9759C47.2895 13.9759 48.8857 16.2065 48.8857 19.9106H40.6386C40.6386 21.7933 41.7642 23.5532 44.0357 23.5532ZM44.0152 15.4084C42.0507 15.4084 40.6386 16.8 40.6386 18.4781H47.2486C47.2486 16.8 45.9798 15.4084 44.0152 15.4084ZM49.4677 14.2624H51.2686L53.6424 22.9188H53.6833L56.0163 14.2624H57.7557L60.1091 22.9188H60.1501L62.5239 14.2624H64.3248L60.9891 24.6992H59.2496L56.8962 16.0838H56.8553L54.5428 24.6992H52.8034L49.4677 14.2624ZM69.9854 23.5532C72.0727 23.5532 72.8504 22.2026 73.0346 21.4863H74.6717C74.1396 23.4304 72.6457 24.9857 70.0468 24.9857C66.8748 24.9857 64.9512 22.7551 64.9512 19.4808C64.9512 16.0019 66.9157 13.9759 69.9649 13.9759C73.2392 13.9759 74.8354 16.2065 74.8354 19.9106H66.5883C66.5883 21.7933 67.7139 23.5532 69.9854 23.5532ZM69.9649 15.4084C68.0004 15.4084 66.5883 16.8 66.5883 18.4781H73.1983C73.1983 16.8 71.9295 15.4084 69.9649 15.4084ZM84.0894 10.0673H85.7266V24.6992H84.0894V23.41H84.0485C83.4346 24.2081 82.4523 24.9857 80.7742 24.9857C78.1548 24.9857 76.0674 22.9188 76.0674 19.4808C76.0674 16.0428 78.1548 13.9759 80.7742 13.9759C82.4523 13.9759 83.4346 14.7126 84.0485 15.6131H84.0894V10.0673ZM80.9379 23.5532C82.882 23.5532 84.0894 21.9365 84.0894 19.4808C84.0894 17.0251 82.882 15.4084 80.9379 15.4084C78.7892 15.4084 77.7046 17.4344 77.7046 19.4808C77.7046 21.5273 78.7892 23.5532 80.9379 23.5532ZM97.001 24.9857C93.8085 24.9857 91.8849 22.7346 91.8849 19.4808C91.8849 16.227 93.8085 13.9759 97.001 13.9759C100.173 13.9759 102.097 16.227 102.097 19.4808C102.097 22.7346 100.173 24.9857 97.001 24.9857ZM97.001 23.5532C99.3339 23.5532 100.459 21.7114 100.459 19.4808C100.459 17.2502 99.3339 15.4084 97.001 15.4084C94.6476 15.4084 93.522 17.2502 93.522 19.4808C93.522 21.7114 94.6476 23.5532 97.001 23.5532ZM109.07 13.9759C110.974 13.9759 112.57 15.0196 112.57 17.4139V24.6992H110.933V17.8232C110.933 16.4726 110.298 15.4084 108.661 15.4084C106.819 15.4084 105.591 16.5749 105.591 18.1916V24.6992H103.954V14.2624H105.591V15.5108H105.632C106.185 14.774 107.29 13.9759 109.07 13.9759Z"
        fill="#D6E3FF" />
    <g clip-path="url(#clip0_2614_3558)">
        <path
            d="M49.6951 50.8896H58.3906V105.461H49.6951V50.8896ZM88.8251 88.0528C88.8251 96.4044 81.8317 97.0702 79.7513 97.0702C74.5535 97.0702 73.6078 92.1849 73.6078 89.2381V68.3525H64.9123V89.1944C64.9123 94.3678 66.5297 98.6375 69.3644 101.484C71.8687 104.001 75.6209 105.376 79.686 105.376C82.5686 105.376 86.6512 104.474 88.8251 102.481V105.461H97.5206V68.3525H88.8251V88.0528ZM114.912 55.2554H106.216V68.3525H99.6945V77.0839H106.216V105.461H114.912V77.0839H121.433V68.3525H114.912V55.2554ZM148.818 94.3656C146.924 96.0748 144.424 97.0222 141.681 97.0222C135.633 97.0222 131.192 92.5626 131.192 86.4397C131.192 80.3167 135.492 76.0449 141.681 76.0449C144.377 76.0449 146.924 76.9464 148.866 78.6556L150.185 79.795L156.048 73.9101L154.581 72.5807C151.131 69.4527 146.55 67.6976 141.679 67.6976C130.809 67.6976 122.916 75.5734 122.916 86.3938C122.916 97.1684 130.999 105.326 141.679 105.326C146.642 105.326 151.27 103.571 154.676 100.392L156.094 99.0631L150.14 93.1825L148.818 94.3656ZM187.085 71.5875C184.58 69.0728 181.646 67.6976 177.581 67.6976C174.698 67.6976 171.433 68.5992 169.259 70.5899V50.8896H160.563V105.461H169.259V85.0186C169.259 76.667 175.168 76.0034 177.248 76.0034C182.446 76.0034 182.302 80.8908 182.302 83.8333V105.461H190.998V83.8792C190.998 78.7058 189.922 74.4361 187.085 71.5875Z"
            fill="white" />
        <path
            d="M141.397 80.223C143.064 80.223 144.663 80.8881 145.842 82.072C147.021 83.2559 147.684 84.8616 147.684 86.5358C147.684 88.2101 147.021 89.8158 145.842 90.9997C144.663 92.1836 143.064 92.8487 141.397 92.8487C139.729 92.8487 138.13 92.1836 136.951 90.9997C135.772 89.8158 135.11 88.2101 135.11 86.5358C135.11 84.8616 135.772 83.2559 136.951 82.072C138.13 80.8881 139.729 80.223 141.397 80.223Z"
            fill="#FF3D2E" />
        <path
            d="M37.5235 91.7545C34.217 95.1707 29.7257 97.0217 24.9997 97.0217C15.3129 97.0217 8.26947 89.3817 8.26947 78.8953C8.26947 68.3608 15.3129 60.7208 24.9997 60.7208C29.6801 60.7208 34.1213 62.5697 37.4778 65.94L38.7996 67.2694L44.6125 61.4324L43.3365 60.1031C38.5169 55.1196 31.9953 52.4172 24.9997 52.4172C10.7281 52.4172 0 63.8052 0 78.9411C0 94.0312 10.776 105.373 24.9997 105.373C32.0431 105.373 38.5648 102.623 43.3843 97.6395L44.6604 96.3101L38.8952 90.3793L37.5235 91.7545Z"
            fill="white" />
    </g>
    <path
        d="M15.0789 141.842L19.5105 150.821L29.4199 152.261L22.2494 159.251L23.9421 169.12L15.0789 164.46L6.21576 169.12L7.90848 159.251L0.738016 152.261L10.6474 150.821L15.0789 141.842Z"
        fill="#FF3D2E" />
    <path
        d="M55.2894 141.842L59.721 150.821L69.6303 152.261L62.4599 159.251L64.1526 169.12L55.2894 164.46L46.4262 169.12L48.1189 159.251L40.9485 152.261L50.8578 150.821L55.2894 141.842Z"
        fill="#FF3D2E" />
    <path
        d="M95.5 141.842L99.9316 150.821L109.841 152.261L102.67 159.251L104.363 169.12L95.5 164.46L86.6368 169.12L88.3295 159.251L81.159 152.261L91.0684 150.821L95.5 141.842Z"
        fill="#FF3D2E" />
    <path
        d="M135.711 141.842L140.142 150.821L150.052 152.261L142.881 159.251L144.574 169.12L135.711 164.46L126.848 169.12L128.54 159.251L121.37 152.261L131.279 150.821L135.711 141.842Z"
        fill="#FF3D2E" />
    <path
        d="M175.921 141.842L180.353 150.821L190.262 152.261L183.091 159.251L184.784 169.12L175.921 164.46L167.058 169.12L168.751 159.251L161.58 152.261L171.489 150.821L175.921 141.842Z"
        fill="#FF3D2E" />
    <defs>
        <clipPath id="clip0_2614_3558">
            <rect width="191" height="63.6667" fill="white" transform="translate(0 50.8896)" />
        </clipPath>
    </defs>
</svg>
